X:394
T: Herzallerliebstes Schtzel (118), S. 276
N: T0283
O: Luxemburg
S: Singendes Volk, Esch-Alzette 1937 posth.]
N: Reuland, fff Katharina Prim, 18.12.1910
R: Liebeslieder]
M: 2/4
L: 1/8
K: G
D | G2GG | GBdB | B2A2 | D2z
D | c2cc | d2BA | B2z
d | dcB3d | d2AA | ABc
d | d2GG | GBdB | B2AA | A2
GB | d2de | d2cA | B2A2 | G2z

